X:1
T:Archibald's Sad and Lonely Day
C:T. S. Macdonald
L:1/8
M:C
K:G
%%text Slow
B2 d2 c3 A | BAGF GE E2 | B2 d2 c3 A | BABd eA A2 | [BG]2 [Dd]2 [Ec]3 A | BAGF GE E2 | B,2 D2 C3 E | DCB,A, B,G, G,2 ||
g2 d2 e3 c | Bdeg fA A2 | g2 f2 a3 b | afe^c dB B2 | g2 f2 e3 d | edBA GE E2 | B2 d2 c3 e | dcBA BG G2 |]

